root/assets/icons/g2e_emotion.svg

<svg width="48" height="41" viewBox="0 0 48 41" fill="none" xmlns="http://www.w3.org/2000/svg">
<path d="M22.0332 5.02084C22.0332 2.24791 24.2351 0 26.9513 0H43.0825C45.7987 0 48.0006 2.24791 48.0006 5.02084V13.6567C48.0006 16.4296 45.7987 18.6775 43.0825 18.6775H26.9513C24.2351 18.6775 22.0332 16.4296 22.0332 13.6567V5.02084Z" fill="#003CFF"/>
<foreignObject x="-11.2501" y="-6.63093" width="57.9103" height="58.6505"><div xmlns="http://www.w3.org/1999/xhtml" style="backdrop-filter:blur(5.63px);clip-path:url(#bgblur_0_1075_1883_clip_path);height:100%;width:100%"></div></foreignObject><path data-figma-bg-blur-radius="11.2501" d="M35.4101 22.6942C35.4101 32.6767 27.4832 40.7692 17.705 40.7692C7.92681 40.7692 0 32.6767 0 22.6942C0 12.7116 7.92681 4.61914 17.705 4.61914C27.4832 4.61914 35.4101 12.7116 35.4101 22.6942Z" fill="url(#paint0_linear_1075_1883)" fill-opacity="0.3"/>
<foreignObject x="-30" y="-25.3809" width="95.4102" height="96.1504"><div xmlns="http://www.w3.org/1999/xhtml" style="backdrop-filter:blur(15px);clip-path:url(#bgblur_1_1075_1883_clip_path);height:100%;width:100%"></div></foreignObject><g data-figma-bg-blur-radius="30">
<path fill-rule="evenodd" clip-rule="evenodd" d="M17.705 40.6688C27.4289 40.6688 35.3117 32.6213 35.3117 22.6942C35.3117 12.7671 27.4289 4.71956 17.705 4.71956C7.98114 4.71956 0.0983613 12.7671 0.0983613 22.6942C0.0983613 32.6213 7.98114 40.6688 17.705 40.6688ZM17.705 40.7692C27.4832 40.7692 35.4101 32.6767 35.4101 22.6942C35.4101 12.7116 27.4832 4.61914 17.705 4.61914C7.92681 4.61914 0 12.7116 0 22.6942C0 32.6767 7.92681 40.7692 17.705 40.7692Z" fill="url(#paint1_linear_1075_1883)"/>
<path fill-rule="evenodd" clip-rule="evenodd" d="M17.705 40.6688C27.4289 40.6688 35.3117 32.6213 35.3117 22.6942C35.3117 12.7671 27.4289 4.71956 17.705 4.71956C7.98114 4.71956 0.0983613 12.7671 0.0983613 22.6942C0.0983613 32.6213 7.98114 40.6688 17.705 40.6688ZM17.705 40.7692C27.4832 40.7692 35.4101 32.6767 35.4101 22.6942C35.4101 12.7116 27.4832 4.61914 17.705 4.61914C7.92681 4.61914 0 12.7116 0 22.6942C0 32.6767 7.92681 40.7692 17.705 40.7692Z" fill="url(#paint2_radial_1075_1883)"/>
</g>
<ellipse cx="11.2133" cy="18.6773" rx="1.96723" ry="2.00834" fill="white"/>
<ellipse cx="24.0004" cy="18.6773" rx="1.96723" ry="2.00834" fill="white"/>
<path d="M22.477 25.886C23.0446 26.1761 23.2826 26.8757 22.9091 27.3923C22.3963 28.1016 21.7496 28.7042 21.0033 29.1624C19.9323 29.82 18.7001 30.1532 17.4506 30.1229C16.201 30.0927 14.9857 29.7003 13.9464 28.9916C13.2221 28.4977 12.6041 27.8643 12.1247 27.1309C11.776 26.5972 12.0469 25.9095 12.6278 25.6469C13.2215 25.3787 13.9096 25.6631 14.3194 26.1695C14.5824 26.4945 14.8915 26.7804 15.2383 27.0169C15.9108 27.4755 16.6972 27.7293 17.5057 27.7489C18.3142 27.7685 19.1115 27.5529 19.8045 27.1274C20.1609 26.9086 20.4822 26.6389 20.7595 26.328C21.1939 25.8411 21.896 25.5891 22.477 25.886Z" fill="white"/>
<defs>
<clipPath id="bgblur_0_1075_1883_clip_path" transform="translate(11.2501 6.63093)"><path d="M35.4101 22.6942C35.4101 32.6767 27.4832 40.7692 17.705 40.7692C7.92681 40.7692 0 32.6767 0 22.6942C0 12.7116 7.92681 4.61914 17.705 4.61914C27.4832 4.61914 35.4101 12.7116 35.4101 22.6942Z"/>
</clipPath><clipPath id="bgblur_1_1075_1883_clip_path" transform="translate(30 25.3809)"><path fill-rule="evenodd" clip-rule="evenodd" d="M17.705 40.6688C27.4289 40.6688 35.3117 32.6213 35.3117 22.6942C35.3117 12.7671 27.4289 4.71956 17.705 4.71956C7.98114 4.71956 0.0983613 12.7671 0.0983613 22.6942C0.0983613 32.6213 7.98114 40.6688 17.705 40.6688ZM17.705 40.7692C27.4832 40.7692 35.4101 32.6767 35.4101 22.6942C35.4101 12.7116 27.4832 4.61914 17.705 4.61914C7.92681 4.61914 0 12.7116 0 22.6942C0 32.6767 7.92681 40.7692 17.705 40.7692Z"/>
</clipPath><linearGradient id="paint0_linear_1075_1883" x1="3.78927" y1="7.95442" x2="42.34" y2="27.5069" gradientUnits="userSpaceOnUse">
<stop stop-color="#5A81FF" stop-opacity="0.9"/>
<stop offset="0.447036" stop-color="#567DFF" stop-opacity="0.955296"/>
<stop offset="1" stop-color="#4E78FF" stop-opacity="0.9"/>
</linearGradient>
<linearGradient id="paint1_linear_1075_1883" x1="5.09591" y1="3.32807" x2="38.6324" y2="22.508" gradientUnits="userSpaceOnUse">
<stop offset="0.188941" stop-color="#E7F0FF" stop-opacity="0.523483"/>
<stop offset="0.526042" stop-color="#88A4FF"/>
<stop offset="1" stop-color="#B4D2FF" stop-opacity="0.1"/>
</linearGradient>
<radialGradient id="paint2_radial_1075_1883" cx="0" cy="0" r="1" gradientTransform="matrix(17.509 -22.0558 21.6044 46.512 5.29191 39.5857)" gradientUnits="userSpaceOnUse">
<stop stop-color="white"/>
<stop offset="1" stop-color="white" stop-opacity="0"/>
</radialGradient>
</defs>
</svg>

<svg xmlns="http://www.w3.org/2000/svg" width="48" height="41" fill="none" viewBox="0 0 48 41"><path fill="#003cff" d="M22.033 5.02c0-2.772 2.202-5.02 4.918-5.02h16.132C45.799 0 48 2.248 48 5.02v8.637c0 2.773-2.202 5.02-4.918 5.02H26.95c-2.716 0-4.918-2.247-4.918-5.02z"/><foreignObject width="57.91" height="58.651" x="-11.25" y="-6.631"><div xmlns="http://www.w3.org/1999/xhtml" style="backdrop-filter:blur(5.63px);clip-path:url(#a);height:100%;width:100%"/></foreignObject><path fill="url(#b)" fill-opacity=".3" d="M35.41 22.694c0 9.983-7.927 18.075-17.705 18.075S0 32.677 0 22.694 7.927 4.62 17.705 4.62 35.41 12.712 35.41 22.694" data-figma-bg-blur-radius="11.25"/><foreignObject width="57.91" height="58.651" x="-11.25" y="-6.631"><div xmlns="http://www.w3.org/1999/xhtml" style="backdrop-filter:blur(5.63px);clip-path:url(#c);height:100%;width:100%"/></foreignObject><g fill-rule="evenodd" clip-rule="evenodd" data-figma-bg-blur-radius="11.25"><path fill="url(#d)" d="M17.705 40.669c9.724 0 17.607-8.048 17.607-17.975S27.429 4.72 17.705 4.72.098 12.767.098 22.694 7.981 40.67 17.705 40.67m0 .1c9.778 0 17.705-8.092 17.705-18.075S27.483 4.62 17.705 4.62 0 12.712 0 22.694C0 32.677 7.927 40.77 17.705 40.77"/><path fill="url(#e)" d="M17.705 40.669c9.724 0 17.607-8.048 17.607-17.975S27.429 4.72 17.705 4.72.098 12.767.098 22.694 7.981 40.67 17.705 40.67m0 .1c9.778 0 17.705-8.092 17.705-18.075S27.483 4.62 17.705 4.62 0 12.712 0 22.694C0 32.677 7.927 40.77 17.705 40.77"/></g><ellipse cx="11.213" cy="18.677" fill="#fff" rx="1.967" ry="2.008"/><ellipse cx="24" cy="18.677" fill="#fff" rx="1.967" ry="2.008"/><path fill="#fff" d="M22.477 25.886c.568.29.806.99.432 1.506a6.6 6.6 0 0 1-1.906 1.77 6.5 6.5 0 0 1-3.552.96 6.5 6.5 0 0 1-3.505-1.13 6.7 6.7 0 0 1-1.821-1.861c-.349-.534-.078-1.221.503-1.484.594-.268 1.282.016 1.691.523.263.324.572.61.92.847a4.197 4.197 0 0 0 4.566.11c.356-.218.677-.488.954-.799.435-.487 1.137-.739 1.718-.442"/><defs><linearGradient id="b" x1="3.789" x2="42.34" y1="7.954" y2="27.507" gradientUnits="userSpaceOnUse"><stop stop-color="#5a81ff" stop-opacity=".9"/><stop offset=".447" stop-color="#567dff" stop-opacity=".955"/><stop offset="1" stop-color="#4e78ff" stop-opacity=".9"/></linearGradient><linearGradient id="d" x1="5.096" x2="38.632" y1="3.328" y2="22.508" gradientUnits="userSpaceOnUse"><stop offset=".189" stop-color="#e7f0ff" stop-opacity=".523"/><stop offset=".526" stop-color="#88a4ff"/><stop offset="1" stop-color="#b4d2ff" stop-opacity=".1"/></linearGradient><clipPath id="a" transform="translate(11.25 6.63)"><path d="M35.41 22.694c0 9.983-7.927 18.075-17.705 18.075S0 32.677 0 22.694 7.927 4.62 17.705 4.62 35.41 12.712 35.41 22.694"/></clipPath><clipPath id="c" transform="translate(11.25 6.63)"><path fill-rule="evenodd" d="M17.705 40.669c9.724 0 17.607-8.048 17.607-17.975S27.429 4.72 17.705 4.72.098 12.767.098 22.694 7.981 40.67 17.705 40.67m0 .1c9.778 0 17.705-8.092 17.705-18.075S27.483 4.62 17.705 4.62 0 12.712 0 22.694C0 32.677 7.927 40.77 17.705 40.77" clip-rule="evenodd"/></clipPath><radialGradient id="e" cx="0" cy="0" r="1" gradientTransform="matrix(17.509 -22.0558 21.6044 46.512 5.292 39.586)" gradientUnits="userSpaceOnUse"><stop stop-color="#fff"/><stop offset="1" stop-color="#fff" stop-opacity="0"/></radialGradient></defs></svg>
